X:1
T:Behold the Man, 8.10.8.10.10.4
T:Behold the Man, 8.10.8.10.10.4
T:Scott Werdebaugh, 2018
T:© 2018 Scott Werdebaugh &amp; New Heart Music - May be freely copied &amp; used for Christian worship or devotions with no alterations. All other rights are reserved.
C:Scott Werdebaugh, 2018
Z:© 2018 Scott Werdebaugh & New Heart Music - May be freely copied & used for
Z:Christian worship or devotions with no alterations. All other rights are reserved.
%%score 1 2
L:1/8
Q:1/4=145
M:3/4
K:C
V:1 treble 
V:2 bass 
V:1
 [G,C]2 | [CE]4 [DF]2 | [EG]4 [Ec]2 | [DB]4 [CA]2 | [DG]4 [DF]2 | [CE]4 [EG]2 | [FA]4 [Ec]2 | %7
 [DB]4 [Ec]2 | [DB]4 [CA]2 | [DG]4 !breath![DB]2 | [Ec]4 [DB]2 | [CA]4 [EG]2 | [FA]4 [DB]2 | %13
 [Ec]4 [DB]2 | [Ec]4 [DB]2 | [CA]4 [EG]2 | [FA]4 [Fc]2 | [DB]4 [FA]2 | [EG]4 [DF]2 | [CE]4 [EG]2 | %20
 [DF]4 [CE]2 | [CE]4 [EG]2 | [Ec]4 [FA]2 | [DG]4 z2 | [Ec]6 | [Fd]4 [DB]2 | [Ec]6- | [Ec]4 |] %28
V:2
 [C,E,]2 | [C,G,]4 [G,B,]2 | [C,C]4 [C,G,]2 | [G,,G,]4 [F,,F,]2 | [G,,B,]4 [G,,B,]2 | %5
 [C,G,]4 [C,C]2 | [F,C]4 [C,G,]2 | [G,,G,]4 [C,G,]2 | [G,,G,]4 [F,,F,]2 | %9
 [G,,B,]4 !breath![G,,G,]2 | [C,G,]4 [G,,G,]2 | [F,,F,]4 [C,C]2 | [F,C]4 [G,,G,]2 | %13
 [C,G,]4 [G,,G,]2 | [C,G,]4 [G,,G,]2 | [F,,F,]4 [C,C]2 | [F,C]4 [F,A,]2 | [G,,G,]4 [F,,C]2 | %18
 [C,C]4 [G,B,]2 | [C,G,]4 [C,C]2 | [G,B,]4 [C,G,]2 | [C,G,]4 [C,C]2 | [C,G,]4 [F,C]2 | [G,B,]4 z2 | %24
 [C,G,]6 | [G,B,]4 [G,,G,]2 | [C,G,]6- | [C,G,]4 |] %28

